humanity-icon-theme/Humanity/devices/22/media-optical.svg

<?xml version="1.0" encoding="UTF-8" standalone="no"?>
<!-- Created with Inkscape (http://www.inkscape.org/) -->

<svg
   xmlns:svg="http://www.w3.org/2000/svg"
   xmlns="http://www.w3.org/2000/svg"
   xmlns:xlink="http://www.w3.org/1999/xlink"
   version="1.0"
   width="22"
   height="22"
   id="svg2890">
  <defs
     id="defs2892">
    <linearGradient
       id="linearGradient3772">
      <stop
         id="stop3774"
         style="stop-color:#b4b4b4;stop-opacity:1"
         offset="0" />
      <stop
         id="stop3776"
         style="stop-color:#969696;stop-opacity:1"
         offset="1" />
    </linearGradient>
    <linearGradient
       x1="12.2744"
       y1="32.4165"
       x2="35.391201"
       y2="14.2033"
       id="linearGradient3263"
       gradientUnits="userSpaceOnUse">
      <stop
         id="stop3265"
         style="stop-color:#dedbde;stop-opacity:1"
         offset="0" />
      <stop
         id="stop3267"
         style="stop-color:#e6e6e6;stop-opacity:1"
         offset="0.5" />
      <stop
         id="stop3269"
         style="stop-color:#d2d2d2;stop-opacity:1"
         offset="1" />
    </linearGradient>
    <linearGradient
       id="linearGradient3428">
      <stop
         id="stop3430"
         style="stop-color:#aaaaaa;stop-opacity:1"
         offset="0" />
      <stop
         id="stop3432"
         style="stop-color:#d4d4d4;stop-opacity:1"
         offset="1" />
    </linearGradient>
    <linearGradient
       id="linearGradient6036">
      <stop
         id="stop6038"
         style="stop-color:#ffffff;stop-opacity:1"
         offset="0" />
      <stop
         id="stop6040"
         style="stop-color:#ffffff;stop-opacity:0"
         offset="1" />
    </linearGradient>
    <linearGradient
       id="linearGradient3519">
      <stop
         id="stop3521"
         style="stop-color:#fcd9cd;stop-opacity:1"
         offset="0" />
      <stop
         id="stop3523"
         style="stop-color:#fcd9cd;stop-opacity:0"
         offset="1" />
    </linearGradient>
    <linearGradient
       id="linearGradient3511">
      <stop
         id="stop3513"
         style="stop-color:#ebeec7;stop-opacity:1"
         offset="0" />
      <stop
         id="stop3515"
         style="stop-color:#ebeec7;stop-opacity:0"
         offset="1" />
    </linearGradient>
    <linearGradient
       id="linearGradient3503">
      <stop
         id="stop3505"
         style="stop-color:#c4ebdd;stop-opacity:1"
         offset="0" />
      <stop
         id="stop3507"
         style="stop-color:#c4ebdd;stop-opacity:0"
         offset="1" />
    </linearGradient>
    <linearGradient
       id="linearGradient3495">
      <stop
         id="stop3497"
         style="stop-color:#c1cbe4;stop-opacity:1"
         offset="0" />
      <stop
         id="stop3499"
         style="stop-color:#c1cbe4;stop-opacity:0"
         offset="1" />
    </linearGradient>
    <linearGradient
       id="linearGradient3487">
      <stop
         id="stop3489"
         style="stop-color:#e6cde2;stop-opacity:1"
         offset="0" />
      <stop
         id="stop3491"
         style="stop-color:#e6cde2;stop-opacity:0"
         offset="1" />
    </linearGradient>
    <linearGradient
       x1="12.2744"
       y1="32.4165"
       x2="35.391201"
       y2="14.2033"
       id="linearGradient3456"
       xlink:href="#linearGradient3263"
       gradientUnits="userSpaceOnUse"
       gradientTransform="matrix(0,0.6000053,-0.6000053,0,25.860125,-2.4001307)" />
    <linearGradient
       x1="-21.915663"
       y1="3"
       x2="-21.915663"
       y2="45.032898"
       id="linearGradient3458"
       xlink:href="#linearGradient3772"
       gradientUnits="userSpaceOnUse"
       gradientTransform="matrix(0.5121951,0,0,0.5121951,25.452835,-0.2926833)" />
    <linearGradient
       x1="21.448364"
       y1="15.5"
       x2="21.448364"
       y2="32.509201"
       id="linearGradient3460"
       xlink:href="#linearGradient3428"
       gradientUnits="userSpaceOnUse"
       gradientTransform="matrix(0.4374999,0,0,0.4374999,1.5000004,1.5000003)" />
    <linearGradient
       x1="18.775953"
       y1="4.0378027"
       x2="18.203465"
       y2="45.962208"
       id="linearGradient3462"
       xlink:href="#linearGradient6036"
       gradientUnits="userSpaceOnUse"
       gradientTransform="matrix(0.2272999,0,0,0.2272999,6.4659273,6.3175018)" />
    <linearGradient
       x1="20.580074"
       y1="10.774516"
       x2="24.27351"
       y2="9.8622112"
       id="linearGradient3464"
       xlink:href="#linearGradient3487"
       gradientUnits="userSpaceOnUse"
       spreadMethod="reflect" />
    <linearGradient
       x1="17.494959"
       y1="11.200086"
       x2="21.047453"
       y2="9.7956104"
       id="linearGradient3466"
       xlink:href="#linearGradient3495"
       gradientUnits="userSpaceOnUse"
       spreadMethod="reflect" />
    <linearGradient
       x1="14.084608"
       y1="13.045606"
       x2="16.994024"
       y2="10.732353"
       id="linearGradient3468"
       xlink:href="#linearGradient3503"
       gradientUnits="userSpaceOnUse"
       spreadMethod="reflect" />
    <linearGradient
       x1="12.371647"
       y1="16.188046"
       x2="14.609327"
       y2="13.461712"
       id="linearGradient3470"
       xlink:href="#linearGradient3511"
       gradientUnits="userSpaceOnUse"
       spreadMethod="reflect" />
    <linearGradient
       x1="10.609375"
       y1="17.886322"
       x2="9.7297754"
       y2="20.612656"
       id="linearGradient3472"
       xlink:href="#linearGradient3519"
       gradientUnits="userSpaceOnUse"
       spreadMethod="reflect" />
    <linearGradient
       x1="10.50172"
       y1="3.6100161"
       x2="48.798885"
       y2="54.698483"
       id="linearGradient3474"
       xlink:href="#linearGradient6036"
       gradientUnits="userSpaceOnUse"
       gradientTransform="matrix(0.4820056,0,0,0.4820056,0.2646087,-0.05013717)" />
    <linearGradient
       x1="20.580074"
       y1="10.774516"
       x2="24.27351"
       y2="9.8622112"
       id="linearGradient3476"
       xlink:href="#linearGradient3487"
       gradientUnits="userSpaceOnUse"
       spreadMethod="reflect" />
    <linearGradient
       x1="17.494959"
       y1="11.200086"
       x2="21.047453"
       y2="9.7956104"
       id="linearGradient3478"
       xlink:href="#linearGradient3495"
       gradientUnits="userSpaceOnUse"
       spreadMethod="reflect" />
    <linearGradient
       x1="14.084608"
       y1="13.045606"
       x2="16.994024"
       y2="10.732353"
       id="linearGradient3480"
       xlink:href="#linearGradient3503"
       gradientUnits="userSpaceOnUse"
       spreadMethod="reflect" />
    <linearGradient
       x1="12.371647"
       y1="16.188046"
       x2="14.609327"
       y2="13.461712"
       id="linearGradient3482"
       xlink:href="#linearGradient3511"
       gradientUnits="userSpaceOnUse"
       spreadMethod="reflect" />
    <linearGradient
       x1="10.609375"
       y1="17.886322"
       x2="9.7297754"
       y2="20.612656"
       id="linearGradient3484"
       xlink:href="#linearGradient3519"
       gradientUnits="userSpaceOnUse"
       spreadMethod="reflect" />
  </defs>
  <g
     id="layer1">
    <g
       transform="translate(-1,-0.9999999)"
       id="g3437">
      <path
         d="M 22.5,12 C 22.5,6.1799465 17.820052,1.4999997 12,1.4999997 6.1799464,1.4999997 1.5000001,6.179947 1.5000001,12 1.499999,17.820053 6.1799469,22.5 12,22.5 c 5.820052,-1e-6 10.5,-4.679947 10.5,-10.5 z m -7,0 c 0,1.971062 -1.56998,3.5 -3.5,3.5 -1.971328,0 -3.5,-1.655022 -3.5,-3.5 0,-1.886286 1.463791,-3.5 3.5,-3.5 2.077509,0 3.5,1.487665 3.5,3.5 z"
         id="path2781"
         style="fill:url(#linearGradient3456);fill-rule:nonzero;stroke:url(#linearGradient3458);stroke-width:1.00000012;stroke-miterlimit:4;stroke-opacity:1" />
      <path
         d="m 12,8.0851 c -2.1610248,0 -3.9149,1.7538752 -3.9149,3.9149 0,2.161025 1.7538752,3.9149 3.9149,3.9149 2.161025,0 3.9149,-1.753875 3.9149,-3.9149 0,-2.1610248 -1.753875,-3.9149 -3.9149,-3.9149 z m 0,1.95745 c 1.080512,0 1.95745,0.876938 1.95745,1.95745 0,1.080512 -0.876938,1.95745 -1.95745,1.95745 -1.080512,0 -1.95745,-0.876938 -1.95745,-1.95745 0,-1.080512 0.876938,-1.95745 1.95745,-1.95745 z"
         id="path2474"
         style="opacity:0.5;fill:#ffffff;fill-opacity:1;fill-rule:nonzero;stroke:none;stroke-width:1;marker:none;visibility:visible;display:inline;overflow:visible;enable-background:accumulate" />
      <path
         d="M 12,8.5000001 C 10.068,8.5000001 8.5000002,10.068 8.5000002,12 c 0,1.932 1.5679998,3.5 3.4999998,3.5 1.932,0 3.5,-1.568 3.5,-3.5 0,-1.932 -1.568,-3.4999999 -3.5,-3.4999999 z m 0,1.7500009 c 0.966,0 1.75,0.784 1.75,1.749999 0,0.966 -0.784,1.75 -1.75,1.75 -0.965999,0 -1.749999,-0.784 -1.749999,-1.75 0,-0.965999 0.784,-1.749999 1.749999,-1.749999 z"
         id="path3418"
         style="fill:none;stroke:url(#linearGradient3460);stroke-width:1.00000024;stroke-linecap:butt;stroke-linejoin:round;stroke-miterlimit:4;stroke-opacity:1;stroke-dasharray:none;stroke-dashoffset:0;marker:none;visibility:visible;display:inline;overflow:visible;enable-background:accumulate" />
      <path
         d="m 12,7.4999997 c -2.494286,0 -4.5000002,2.005714 -4.5000002,4.5000003 0,2.494285 2.0057142,4.5 4.5000002,4.5 2.494287,0 4.5,-2.005715 4.5,-4.5 0,-2.4942863 -2.005713,-4.5000003 -4.5,-4.5000003 l 0,0 0,0 z"
         id="path3281"
         style="opacity:0.8;fill:none;stroke:url(#linearGradient3462);stroke-width:0.99999982;stroke-miterlimit:4;stroke-opacity:1" />
      <g
         transform="matrix(0.4893625,0,0,0.4893625,0.2553,0.2553)"
         id="g3527">
        <path
           d="M 15.856928,5.7307748 20.625,16.34375 C 21.660403,15.885186 22.795334,15.625 24,15.625 c 0.03206,0 0.06178,-3.6e-4 0.09375,0 l 0.01426,-11.6202488 c -2.94215,-0.070687 -5.543041,0.6572865 -8.251083,1.7260236 z"
           transform="matrix(0.9996011,0.02824295,-0.02824295,0.9996011,0.6924114,-0.6708346)"
           id="path3296"
           style="opacity:0.8;fill:url(#linearGradient3464);fill-opacity:1;fill-rule:nonzero;stroke:none" />
        <path
           d="m 12.121471,7.9060109 6.931026,9.3601041 c 0.913109,-0.669755 1.965938,-1.167064 3.142629,-1.425169 0.03132,-0.0069 0.06026,-0.01359 0.09157,-0.02009 L 19.857174,4.426276 c -2.888973,0.5613244 -5.31953,1.8556038 -7.735703,3.4797349 z"
           id="path3308"
           style="opacity:0.8;fill:url(#linearGradient3466);fill-opacity:1;fill-rule:nonzero;stroke:none" />
        <path
           d="m 8.2523933,11.646535 9.2137237,7.155818 c 0.70865,-0.883264 1.596891,-1.636119 2.666685,-2.18998 0.02847,-0.01474 0.05469,-0.02872 0.08325,-0.0431 L 14.86585,6.2506132 C 12.220599,7.5405321 10.165881,9.452393 8.2523933,11.646535 z"
           id="path3310"
           style="opacity:0.8;fill:url(#linearGradient3468);fill-opacity:1;fill-rule:nonzero;stroke:none" />
        <path
           d="m 5.6328855,16.073974 c 7.1748065,2.242248 7.8502625,7.031463 12.7767855,1.754127 L 10.499985,9.1321388 C 8.2787249,11.062747 6.9132871,13.459349 5.6328855,16.073974 z"
           id="path3312"
           style="opacity:0.8;fill:url(#linearGradient3470);fill-opacity:1;fill-rule:nonzero;stroke:none" />
        <path
           d="M 7.155289,13.193173 C 5.9722117,14.945185 5.2475768,16.829547 4.6301929,18.837116 L 15.96875,21.8125 c 0.215514,-0.763003 0.518046,-1.514767 0.96875,-2.21875 0.01729,-0.027 0.04496,-0.06702 0.0625,-0.09375 L 7.155289,13.193173 z"
           id="path3314"
           style="opacity:0.8;fill:url(#linearGradient3472);fill-opacity:1;fill-rule:nonzero;stroke:none" />
      </g>
      <path
         d="m 12,2.4574317 c -5.2893093,0 -9.542569,4.25326 -9.542569,9.5425683 0,5.28931 4.2532597,9.542568 9.542569,9.542568 5.28931,0 9.542569,-4.253258 9.542569,-9.542568 C 21.542569,6.7106917 17.28931,2.4574317 12,2.4574317 l 0,0 0,0 z"
         id="path3272"
         style="opacity:0.5;fill:none;stroke:url(#linearGradient3474);stroke-width:1;stroke-miterlimit:4;stroke-opacity:1" />
      <g
         transform="matrix(-0.4893625,0,0,-0.4893625,23.7447,23.740214)"
         id="g3297">
        <path
           d="M 15.856928,5.7307748 20.625,16.34375 C 21.660403,15.885186 22.795334,15.625 24,15.625 c 0.03206,0 0.06178,-3.6e-4 0.09375,0 l 0.01426,-11.6202488 c -2.94215,-0.070687 -5.543041,0.6572865 -8.251083,1.7260236 z"
           transform="matrix(0.9996011,0.02824295,-0.02824295,0.9996011,0.6924114,-0.6708346)"
           id="path3299"
           style="opacity:0.8;fill:url(#linearGradient3476);fill-opacity:1;fill-rule:nonzero;stroke:none" />
        <path
           d="m 12.121471,7.9060109 6.931026,9.3601041 c 0.913109,-0.669755 1.965938,-1.167064 3.142629,-1.425169 0.03132,-0.0069 0.06026,-0.01359 0.09157,-0.02009 L 19.857174,4.426276 c -2.888973,0.5613244 -5.31953,1.8556038 -7.735703,3.4797349 z"
           id="path3301"
           style="opacity:0.8;fill:url(#linearGradient3478);fill-opacity:1;fill-rule:nonzero;stroke:none" />
        <path
           d="m 8.2523933,11.646535 9.2137237,7.155818 c 0.70865,-0.883264 1.596891,-1.636119 2.666685,-2.18998 0.02847,-0.01474 0.05469,-0.02872 0.08325,-0.0431 L 14.86585,6.2506132 C 12.220599,7.5405321 10.165881,9.452393 8.2523933,11.646535 z"
           id="path3303"
           style="opacity:0.8;fill:url(#linearGradient3480);fill-opacity:1;fill-rule:nonzero;stroke:none" />
        <path
           d="m 5.6328855,16.073974 c 7.1748065,2.242248 7.8502625,7.031463 12.7767855,1.754127 L 10.499985,9.1321388 C 8.2787249,11.062747 6.9132871,13.459349 5.6328855,16.073974 z"
           id="path3305"
           style="opacity:0.8;fill:url(#linearGradient3482);fill-opacity:1;fill-rule:nonzero;stroke:none" />
        <path
           d="M 7.155289,13.193173 C 5.9722117,14.945185 5.2475768,16.829547 4.6301929,18.837116 L 15.96875,21.8125 c 0.215514,-0.763003 0.518046,-1.514767 0.96875,-2.21875 0.01729,-0.027 0.04496,-0.06702 0.0625,-0.09375 L 7.155289,13.193173 z"
           id="path3307"
           style="opacity:0.8;fill:url(#linearGradient3484);fill-opacity:1;fill-rule:nonzero;stroke:none" />
      </g>
    </g>
  </g>
</svg>

<?xml version="1.0" encoding="UTF-8" standalone="no"?>
<!-- Created with Inkscape (http://www.inkscape.org/) -->
<svg id="svg2890" xmlns="http://www.w3.org/2000/svg" height="22" width="22" version="1.0" xmlns:xlink="http://www.w3.org/1999/xlink">
 <defs id="defs2892">
  <linearGradient id="linearGradient6036">
   <stop id="stop6038" style="stop-color:#fff" offset="0"/>
   <stop id="stop6040" style="stop-color:#fff;stop-opacity:0" offset="1"/>
  </linearGradient>
  <linearGradient id="linearGradient3519">
   <stop id="stop3521" style="stop-color:#fcd9cd" offset="0"/>
   <stop id="stop3523" style="stop-color:#fcd9cd;stop-opacity:0" offset="1"/>
  </linearGradient>
  <linearGradient id="linearGradient3511">
   <stop id="stop3513" style="stop-color:#ebeec7" offset="0"/>
   <stop id="stop3515" style="stop-color:#ebeec7;stop-opacity:0" offset="1"/>
  </linearGradient>
  <linearGradient id="linearGradient3503">
   <stop id="stop3505" style="stop-color:#c4ebdd" offset="0"/>
   <stop id="stop3507" style="stop-color:#c4ebdd;stop-opacity:0" offset="1"/>
  </linearGradient>
  <linearGradient id="linearGradient3495">
   <stop id="stop3497" style="stop-color:#c1cbe4" offset="0"/>
   <stop id="stop3499" style="stop-color:#c1cbe4;stop-opacity:0" offset="1"/>
  </linearGradient>
  <linearGradient id="linearGradient3487">
   <stop id="stop3489" style="stop-color:#e6cde2" offset="0"/>
   <stop id="stop3491" style="stop-color:#e6cde2;stop-opacity:0" offset="1"/>
  </linearGradient>
  <linearGradient id="linearGradient3456" y2="14.203" gradientUnits="userSpaceOnUse" x2="35.391" gradientTransform="matrix(0 .60001 -.60001 0 25.86 -2.4001)" y1="32.416" x1="12.274">
   <stop id="stop3265" style="stop-color:#dedbde" offset="0"/>
   <stop id="stop3267" style="stop-color:#e6e6e6" offset=".5"/>
   <stop id="stop3269" style="stop-color:#d2d2d2" offset="1"/>
  </linearGradient>
  <linearGradient id="linearGradient3458" y2="45.033" gradientUnits="userSpaceOnUse" x2="-21.916" gradientTransform="matrix(.51220 0 0 .51220 25.453 -.29268)" y1="3" x1="-21.916">
   <stop id="stop3774" style="stop-color:#b4b4b4" offset="0"/>
   <stop id="stop3776" style="stop-color:#969696" offset="1"/>
  </linearGradient>
  <linearGradient id="linearGradient3460" y2="32.509" gradientUnits="userSpaceOnUse" x2="21.448" gradientTransform="matrix(.43750 0 0 .43750 1.5 1.5)" y1="15.5" x1="21.448">
   <stop id="stop3430" style="stop-color:#aaa" offset="0"/>
   <stop id="stop3432" style="stop-color:#d4d4d4" offset="1"/>
  </linearGradient>
  <linearGradient id="linearGradient3462" y2="45.962" xlink:href="#linearGradient6036" gradientUnits="userSpaceOnUse" x2="18.203" gradientTransform="matrix(.22730 0 0 .22730 6.4659 6.3175)" y1="4.0378" x1="18.776"/>
  <linearGradient id="linearGradient3464" y2="9.8622" xlink:href="#linearGradient3487" spreadMethod="reflect" gradientUnits="userSpaceOnUse" x2="24.274" y1="10.775" x1="20.58"/>
  <linearGradient id="linearGradient3466" y2="9.7956" xlink:href="#linearGradient3495" spreadMethod="reflect" gradientUnits="userSpaceOnUse" x2="21.047" y1="11.2" x1="17.495"/>
  <linearGradient id="linearGradient3468" y2="10.732" xlink:href="#linearGradient3503" spreadMethod="reflect" gradientUnits="userSpaceOnUse" x2="16.994" y1="13.046" x1="14.085"/>
  <linearGradient id="linearGradient3470" y2="13.462" xlink:href="#linearGradient3511" spreadMethod="reflect" gradientUnits="userSpaceOnUse" x2="14.609" y1="16.188" x1="12.372"/>
  <linearGradient id="linearGradient3472" y2="20.613" xlink:href="#linearGradient3519" spreadMethod="reflect" gradientUnits="userSpaceOnUse" x2="9.7298" y1="17.886" x1="10.609"/>
  <linearGradient id="linearGradient3474" y2="54.698" xlink:href="#linearGradient6036" gradientUnits="userSpaceOnUse" x2="48.799" gradientTransform="matrix(.48201 0 0 .48201 .26461 -.050137)" y1="3.61" x1="10.502"/>
 </defs>
 <g id="layer1">
  <g id="g3437" transform="translate(-1 -1)">
   <path id="path2781" style="stroke:url(#linearGradient3458);fill:url(#linearGradient3456)" d="m22.5 12c0-5.8201-4.68-10.5-10.5-10.5-5.8201 0-10.5 4.6799-10.5 10.5 0 5.82 4.6799 10.5 10.5 10.5 5.8201-0.000001 10.5-4.6799 10.5-10.5zm-7 0c0 1.9711-1.57 3.5-3.5 3.5-1.9713 0-3.5-1.655-3.5-3.5 0-1.8863 1.4638-3.5 3.5-3.5 2.0775 0 3.5 1.4877 3.5 3.5z"/>
   <path id="path2474" style="opacity:.5;fill:#fff" d="m12 8.0851c-2.161 0-3.9149 1.7539-3.9149 3.9149s1.7539 3.9149 3.9149 3.9149 3.9149-1.7539 3.9149-3.9149-1.7539-3.9149-3.9149-3.9149zm0 1.9574c1.0805 0 1.9574 0.87694 1.9574 1.9574s-0.87694 1.9574-1.9574 1.9574-1.9574-0.87694-1.9574-1.9574 0.87694-1.9574 1.9574-1.9574z"/>
   <path id="path3418" style="stroke-linejoin:round;stroke:url(#linearGradient3460);fill:none" d="m12 8.5c-1.932 0-3.5 1.568-3.5 3.5s1.568 3.5 3.5 3.5 3.5-1.568 3.5-3.5-1.568-3.5-3.5-3.5zm0 1.75c0.966 0 1.75 0.784 1.75 1.75s-0.784 1.75-1.75 1.75-1.75-0.784-1.75-1.75 0.784-1.75 1.75-1.75z"/>
   <path id="path3281" style="opacity:.8;stroke:url(#linearGradient3462);fill:none" d="m12 7.5c-2.4943 0-4.5 2.0057-4.5 4.5s2.0057 4.5 4.5 4.5 4.5-2.0057 4.5-4.5-2.0057-4.5-4.5-4.5z"/>
   <g id="g3527" transform="matrix(.48936 0 0 .48936 .2553 .2553)">
    <path id="path3296" style="opacity:.8;fill:url(#linearGradient3464)" d="m15.857 5.7308 4.768 10.613c1.035-0.459 2.17-0.719 3.375-0.719 0.03206 0 0.06178-0.00036 0.09375 0l0.01426-11.62c-2.9422-0.070687-5.543 0.65729-8.2511 1.726z" transform="matrix(.99960 .028243 -.028243 .99960 .69241 -.67083)"/>
    <path id="path3308" style="opacity:.8;fill:url(#linearGradient3466)" d="m12.121 7.906 6.931 9.3601c0.91311-0.66976 1.9659-1.1671 3.1426-1.4252 0.03132-0.0069 0.06026-0.01359 0.09157-0.02009l-2.429-11.395c-2.889 0.56132-5.3195 1.8556-7.7357 3.4797z"/>
    <path id="path3310" style="opacity:.8;fill:url(#linearGradient3468)" d="m8.2524 11.647 9.2137 7.1558c0.70865-0.88326 1.5969-1.6361 2.6667-2.19 0.02847-0.01474 0.05469-0.02872 0.08325-0.0431l-5.35-10.319c-2.645 1.2895-4.7 3.2014-6.6136 5.396z"/>
    <path id="path3312" style="opacity:.8;fill:url(#linearGradient3470)" d="m5.6329 16.074c7.1748 2.2422 7.8503 7.0315 12.777 1.7541l-7.91-8.6959c-2.2213 1.9309-3.5867 4.3269-4.8671 6.9419z"/>
    <path id="path3314" style="opacity:.8;fill:url(#linearGradient3472)" d="m7.1553 13.193c-1.1831 1.752-1.9077 3.637-2.5251 5.644l11.339 2.975c0.21551-0.763 0.51805-1.5148 0.96875-2.2188 0.01729-0.027 0.04496-0.06702 0.0625-0.09375l-9.8447-6.306z"/>
   </g>
   <path id="path3272" style="opacity:.5;stroke:url(#linearGradient3474);fill:none" d="m12 2.4574c-5.2893 0-9.5426 4.2533-9.5426 9.5426s4.2533 9.5426 9.5426 9.5426 9.5426-4.2533 9.5426-9.5426-4.254-9.5426-9.543-9.5426z"/>
   <g id="g3297" transform="matrix(-.48936 0 0 -.48936 23.745 23.74)">
    <path id="path3299" style="opacity:.8;fill:url(#linearGradient3464)" d="m15.857 5.7308 4.768 10.613c1.035-0.459 2.17-0.719 3.375-0.719 0.03206 0 0.06178-0.00036 0.09375 0l0.01426-11.62c-2.9422-0.070687-5.543 0.65729-8.2511 1.726z" transform="matrix(.99960 .028243 -.028243 .99960 .69241 -.67083)"/>
    <path id="path3301" style="opacity:.8;fill:url(#linearGradient3466)" d="m12.121 7.906 6.931 9.3601c0.91311-0.66976 1.9659-1.1671 3.1426-1.4252 0.03132-0.0069 0.06026-0.01359 0.09157-0.02009l-2.429-11.395c-2.889 0.56132-5.3195 1.8556-7.7357 3.4797z"/>
    <path id="path3303" style="opacity:.8;fill:url(#linearGradient3468)" d="m8.2524 11.647 9.2137 7.1558c0.70865-0.88326 1.5969-1.6361 2.6667-2.19 0.02847-0.01474 0.05469-0.02872 0.08325-0.0431l-5.35-10.319c-2.645 1.2895-4.7 3.2014-6.6136 5.396z"/>
    <path id="path3305" style="opacity:.8;fill:url(#linearGradient3470)" d="m5.6329 16.074c7.1748 2.2422 7.8503 7.0315 12.777 1.7541l-7.91-8.6959c-2.2213 1.9309-3.5867 4.3269-4.8671 6.9419z"/>
    <path id="path3307" style="opacity:.8;fill:url(#linearGradient3472)" d="m7.1553 13.193c-1.1831 1.752-1.9077 3.637-2.5251 5.644l11.339 2.975c0.21551-0.763 0.51805-1.5148 0.96875-2.2188 0.01729-0.027 0.04496-0.06702 0.0625-0.09375l-9.8447-6.306z"/>
   </g>
  </g>
 </g>
</svg>
